ligands/monodentate/diethylether.svg

<svg height="256" viewBox="0 0 256 256" width="256" xmlns="http://www.w3.org/2000/svg"><path d="m0 0h256v256h-256z" fill="#fff"/><ellipse cx="126.8" cy="99.7" fill="#ff7f7f" fill-rule="evenodd" rx="13.6" ry="13.6" stroke="#ff7f7f"/><g fill="none" stroke="#000" stroke-width="2"><path d="m195.5 150.6-29.5 17"/><path d="m166 167.6-29.6-17.1"/><path d="m117.1 150.5-29.5 17.1"/><path d="m87.6 167.6-29.6-17.1"/><path d="m126.8 135.3v-20.5"/><path d="m167.4 166.8-1.4.8-1.5-.8" stroke-miterlimit="10"/><path d="m89 166.7-1.4.9-1.5-.9" stroke-miterlimit="10"/></g><text font-family="sans-serif" font-size="27" x="197" y="158.6">C</text><text font-family="sans-serif" font-size="27" x="215.8" y="158.6">H</text><text font-family="sans-serif" font-size="17" x="234.5" y="169.5">3</text><text font-family="sans-serif" font-size="27" x="118.6" y="158.5">O</text><text x="118.7" y="113.3"/><text font-family="sans-serif" font-size="27" x="12.8" y="158.5">H</text><text font-family="sans-serif" font-size="17" x="31.5" y="169.3">3</text><text font-family="sans-serif" font-size="27" x="40.2" y="158.5">C</text></svg>

<?xml version='1.0' encoding='iso-8859-1'?>
<svg version='1.1' baseProfile='full'
              xmlns='http://www.w3.org/2000/svg'
                      xmlns:rdkit='http://www.rdkit.org/xml'
                      xmlns:xlink='http://www.w3.org/1999/xlink'
                  xml:space='preserve'
width='256px' height='256px' viewBox='0 0 256 256'>
<!-- END OF HEADER -->
<rect style='opacity:1.0;fill:#FFFFFF;stroke:none' width='256.0' height='256.0' x='0.0' y='0.0'> </rect>
<ellipse cx='126.8' cy='99.7' rx='13.6' ry='13.6' class='atom-3'  style='fill:#FF7F7F;fill-rule:evenodd;stroke:#FF7F7F;stroke-width:1.0px;stroke-linecap:butt;stroke-linejoin:miter;stroke-opacity:1' />
<path class='bond-0 atom-0 atom-1' d='M 195.5,150.6 L 166.0,167.6' style='fill:none;fill-rule:evenodd;stroke:#000000;stroke-width:2.0px;stroke-linecap:butt;stroke-linejoin:miter;stroke-opacity:1' />
<path class='bond-1 atom-1 atom-2' d='M 166.0,167.6 L 136.4,150.5' style='fill:none;fill-rule:evenodd;stroke:#000000;stroke-width:2.0px;stroke-linecap:butt;stroke-linejoin:miter;stroke-opacity:1' />
<path class='bond-2 atom-2 atom-4' d='M 117.1,150.5 L 87.6,167.6' style='fill:none;fill-rule:evenodd;stroke:#000000;stroke-width:2.0px;stroke-linecap:butt;stroke-linejoin:miter;stroke-opacity:1' />
<path class='bond-3 atom-4 atom-5' d='M 87.6,167.6 L 58.0,150.5' style='fill:none;fill-rule:evenodd;stroke:#000000;stroke-width:2.0px;stroke-linecap:butt;stroke-linejoin:miter;stroke-opacity:1' />
<path class='bond-4 atom-2 atom-3' d='M 126.8,135.3 L 126.8,114.8' style='fill:none;fill-rule:evenodd;stroke:#000000;stroke-width:2.0px;stroke-linecap:butt;stroke-linejoin:miter;stroke-opacity:1' />
<path d='M 167.4,166.8 L 166.0,167.6 L 164.5,166.8' style='fill:none;stroke:#000000;stroke-width:2.0px;stroke-linecap:butt;stroke-linejoin:miter;stroke-miterlimit:10;stroke-opacity:1;' />
<path d='M 89.0,166.7 L 87.6,167.6 L 86.1,166.7' style='fill:none;stroke:#000000;stroke-width:2.0px;stroke-linecap:butt;stroke-linejoin:miter;stroke-miterlimit:10;stroke-opacity:1;' />
<text x='197.0' y='158.6' class='atom-0' style='font-size:27px;font-style:normal;font-weight:normal;fill-opacity:1;stroke:none;font-family:sans-serif;text-anchor:start;fill:#000000' >C</text>
<text x='215.8' y='158.6' class='atom-0' style='font-size:27px;font-style:normal;font-weight:normal;fill-opacity:1;stroke:none;font-family:sans-serif;text-anchor:start;fill:#000000' >H</text>
<text x='234.5' y='169.5' class='atom-0' style='font-size:17px;font-style:normal;font-weight:normal;fill-opacity:1;stroke:none;font-family:sans-serif;text-anchor:start;fill:#000000' >3</text>
<text x='118.6' y='158.5' class='atom-2' style='font-size:27px;font-style:normal;font-weight:normal;fill-opacity:1;stroke:none;font-family:sans-serif;text-anchor:start;fill:#000000' >O</text>
<text x='118.7' y='113.3' class='atom-3' style='font-size:27px;font-style:normal;font-weight:normal;fill-opacity:1;stroke:none;font-family:sans-serif;text-anchor:start;fill:#000000' ></text>
<text x='12.8' y='158.5' class='atom-5' style='font-size:27px;font-style:normal;font-weight:normal;fill-opacity:1;stroke:none;font-family:sans-serif;text-anchor:start;fill:#000000' >H</text>
<text x='31.5' y='169.3' class='atom-5' style='font-size:17px;font-style:normal;font-weight:normal;fill-opacity:1;stroke:none;font-family:sans-serif;text-anchor:start;fill:#000000' >3</text>
<text x='40.2' y='158.5' class='atom-5' style='font-size:27px;font-style:normal;font-weight:normal;fill-opacity:1;stroke:none;font-family:sans-serif;text-anchor:start;fill:#000000' >C</text>
</svg>
